X:1
T:Den blomstertid nu kommer
T:Östbjörkavisan
C:Melodi från Östbjörka
N:Text: Israel Kolmodin
N:Utskrivet av Stefan Lindén 101004
R:Visa
S:http://www.stefanlinden.se/V/visa%20Den%20blomstertid%20nu%20kommer.pdf
Z:Till ABCnotation Arne Kjellman 20160505
N: Spelbar på säckpipa i A
Q:1/4=170
%%printtempo 0
L:1/4
M:4/4
K:Gmaj
uD | D>G GG | (G>B) B G | B>A A F | D3 (D/2F/2) |
w:Den blom-ster-tid nu kom-mer med lust och* fäg-ring stor. Du*
A>A AB | (c A) d>c | B (B/c/) B A | G3 (G/B/) |
w:nal-kas lju-va som-*mar då gräs och* grö-da gror. Med*
d>d c B | (A>F) (D/F/) (A/B/) | c (d/c/) B A | G3 (G/B/) |
w:blid och liv-lig vär-*ma* till* allt som* va-rit dött, sig*
d>d c B | (A>F) (D/F/) (A/B/) | c (d/c/) B A | G3 G |
w:so-lens strå-lar när-*ma* och* allt blir* å-ter-fött och
w:* * * * * * * * * * * * * *  * * (Du
A>G F E | D>D F (D/F/) | G4 |]
w:allt som va-rit dött bir å-ter-*fött
w:nal-kas å-ter lju-va som-mar-*tid)
W:Den blomstertid nu kommer
W:med lust och fägring stor.
W:Du nalkas, ljuva sommar,
W:då gräs och gröda gror.
W:Med blid och livlig värma
W:till allt som varit dött,
W:sig solens strålar närma,
W:och allt blir återfött.
W:
W:
W:De fagra blomsterängar
W:och åkerns ädla säd,
W:de rika örtesängar
W:och lundens gröna träd,
W:de skola oss påminna
W:Guds godhets rikedom,
W:att vi den nåd besinna
W:som räcker året om.
W:
W:Man hörer fåglar sjunga
W:med mångahanda ljud,
W:skall icke då vår tunga
W:lovsäga Herren Gud?
W:Min själ, upphöj Guds ära,
W:stäm upp din glädjesång
W:till den som vill oss nära
W:och fröjda på en gång!

